icon-themes/breeze_svg/cmd/sc_euroconverter.svg

<svg viewBox="0 0 16 16" xmlns="http://www.w3.org/2000/svg">/&gt;<path d="m9.8125 2c-2.7021178 0-4.9814567 1.9119054-5.625 4.5h-2.1875v1h2.03125c-.0127478.1623895-.03125.3342117-.03125.5s.0185022.3376105.03125.5h-2.03125v1h2.1875c.6435433 2.588095 2.9228822 4.5 5.625 4.5 1.1917 0 2.26625-.3934 3.1875-1.03125l-.5-.8125c-.77123.53912-1.68672.84375-2.6875.84375-2.1566356 0-3.9721091-1.481698-4.59375-3.5h3.78125v-1h-4c-.0164972-.1680852-.03125-.3274112-.03125-.5s.0147528-.3319148.03125-.5h5v-1h-4.78125c.6216409-2.0183024 2.4371144-3.5 4.59375-3.5 1.00078 0 1.91627.30463 2.6875.84375l.5-.8125c-.92125-.63785-1.9958-1.03125-3.1875-1.03125z" fill="#4d4d4d"/></svg>

<svg xmlns="http://www.w3.org/2000/svg" viewBox="0 0 16 16">
     />
 <path 
     style="fill:#4d4d4d" 
     d="M 9.8125 2 C 7.1103822 2 4.8310433 3.9119054 4.1875 6.5 L 2 6.5 L 2 7.5 L 4.03125 7.5 C 4.0185022 7.6623895 4 7.8342117 4 8 C 4 8.1657883 4.0185022 8.3376105 4.03125 8.5 L 2 8.5 L 2 9.5 L 4.1875 9.5 C 4.8310433 12.088095 7.1103822 14 9.8125 14 C 11.0042 14 12.07875 13.6066 13 12.96875 L 12.5 12.15625 C 11.72877 12.69537 10.81328 13 9.8125 13 C 7.6558644 13 5.8403909 11.518302 5.21875 9.5 L 9 9.5 L 9 8.5 L 5 8.5 C 4.9835028 8.3319148 4.96875 8.1725888 4.96875 8 C 4.96875 7.8274112 4.9835028 7.6680852 5 7.5 L 10 7.5 L 10 6.5 L 5.21875 6.5 C 5.8403909 4.4816976 7.6558644 3 9.8125 3 C 10.81328 3 11.72877 3.30463 12.5 3.84375 L 13 3.03125 C 12.07875 2.3934 11.0042 2 9.8125 2 z "
     />
 </svg>
